public/svg/toronto.svg

<?xml version="1.0" encoding="UTF-8"?>
<svg viewBox="0 0 340 334" xmlns="http://www.w3.org/2000/svg">
<path d="m3.7498 312.81h332.5c1.936 0 3.5-1.564 3.5-3.5 0-1.935-1.564-3.5-3.5-3.5h-60.442v-27.667c0-1.936-1.565-3.5-3.5-3.5h-25.641l-1e-3 -95.871c0-1.935-1.564-3.5-3.5-3.5h-36.98v-8.865c0-1.932-1.565-3.5-3.5-3.5-1.936 0-3.5 1.568-3.5 3.5v8.865h-36.984c-1.932 0-3.5 1.565-3.5 3.5v26.044h-14.784c-1.932 0-3.5 1.564-3.5 3.5v60.36c-10.415-5.305-22.001-8.162-34.052-8.162-15.243 0-29.756 4.509-42.061 12.855l-2.8084-164.44c8.1337-0.813 14.532-7.62 14.532-15.967 0-8.4172-6.5068-15.27-14.745-15.981l-1.1587-24.637c-0.0069-0.1857-0.098-0.3429-0.1367-0.5183-0.0524-0.2655-0.0878-0.5355-0.1994-0.7736-0.0524-0.1117-0.1367-0.196-0.2028-0.2974-0.1755-0.2973-0.3635-0.581-0.6198-0.8123-0.0353-0.0319-0.0775-0.049-0.1151-0.0775-0.3042-0.2552-0.6335-0.4728-1.0117-0.613-0.1265-0.049-0.2655-0.0455-0.3988-0.0809-0.27-0.066-0.5252-0.164-0.8157-0.164h-2.5897l-0.0012-45.229c0-1.9323-1.5677-3.5-3.5-3.5-1.9322 0-3.5 1.5677-3.5 3.5v45.232h-2.5862c-1.2875 0-2.3664 0.728-2.9747 1.7671-0.0627 0.098-0.1436 0.1789-0.1926 0.2837-0.1082 0.2313-0.1401 0.4933-0.1925 0.7485-0.0388 0.1823-0.1299 0.343-0.1402 0.5355l-1.1484 24.496h-0.7975c-8.8935 0-16.125 7.2313-16.125 16.121 0 8.8933 7.2348 16.124 16.125 16.124h1.2281l-3.3632 196.72h-33.116c-1.9323 0-3.5 1.564-3.5 3.5 0 1.934 1.5677 3.503 3.5 3.503h-0.00105zm55.513-7v-17.373h94.214v17.373h-94.214zm187.4 0v-24.167h22.141v24.167h-22.141zm-80.963-123.54h73.966v19.243h-11.165c-1.936 0-3.5 1.565-3.5 3.5 0 1.936 1.564 3.5 3.5 3.5h11.165v10.549h-11.165c-1.936 0-3.5 1.565-3.5 3.5 0 1.936 1.564 3.5 3.5 3.5h11.165v10.553h-11.165c-1.936 0-3.5 1.564-3.5 3.5 0 1.935 1.564 3.5 3.5 3.5h11.165v10.549h-11.165c-1.936 0-3.5 1.564-3.5 3.5 0 1.935 1.564 3.5 3.5 3.5h11.165v10.552h-11.165c-1.936 0-3.5 1.564-3.5 3.5s1.564 3.5 3.5 3.5h11.165v10.553h-11.165c-1.936 0-3.5 1.564-3.5 3.5 0 1.935 1.564 3.5 3.5 3.5h11.165v9.544h-21.724l-1e-3 -97.496c0-1.935-1.565-3.5-3.5-3.5h-48.741v-22.547zm-18.281 85.709h9.556c1.932 0 3.5-1.564 3.5-3.5s-1.568-3.5-3.5-3.5h-9.556v-7.042h9.556c1.932 0 3.5-1.565 3.5-3.5 0-1.936-1.568-3.5-3.5-3.5h-9.556v-7.039h9.556c1.932 0 3.5-1.564 3.5-3.5s-1.568-3.5-3.5-3.5h-9.556v-7.042h9.556c1.932 0 3.5-1.565 3.5-3.5 0-1.936-1.568-3.5-3.5-3.5h-9.556v-7.043h14.767c7e-3 0 0.01 4e-3 0.017 4e-3s0.01-4e-3 0.017-4e-3h48.723v7.043l-35.683 1e-3c-1.932 0-3.5 1.564-3.5 3.5s1.568 3.5 3.5 3.5h35.68v7.042h-35.68c-1.932 0-3.5 1.564-3.5 3.5s1.568 3.5 3.5 3.5h35.68v7.039h-35.68c-1.932 0-3.5 1.564-3.5 3.5s1.568 3.5 3.5 3.5h35.68v7.042l-35.68-1e-3c-1.932 0-3.5 1.564-3.5 3.5s1.568 3.5 3.5 3.5h35.68v7.042h-35.68c-1.932 0-3.5 1.565-3.5 3.5 0 1.936 1.568 3.5 3.5 3.5h35.68v7.039h-35.68c-1.932 0-3.5 1.564-3.5 3.5s1.568 3.5 3.5 3.5h35.68v9.752h-50.467v-20.874c0-0.454-0.091-0.91-0.27-1.337-0.179-0.431-0.438-0.819-0.76-1.141-3.703-3.706-7.742-6.944-12.029-9.751v-4.73h5e-3zm-82.242 13.454c11.77-8.984 26.074-13.919 41.192-13.919 15.116 4e-3 29.42 4.935 41.192 13.919h-82.384zm-17.389-225.43h5.4985l0.9798 20.833h-7.4547l0.9764-20.833zm-17.906 36.957c0-5.0289 4.0947-9.1213 9.1248-9.1213h20.898c5.0289 0 9.1213 4.0912 9.1213 9.1213 0 5.0336-4.0913 9.1248-9.1213 9.1248h-20.898c-5.0301 0-9.1248-4.0947-9.1248-9.1248zm17.356 16.125h7.2552l2.9018 169.65c-1.3934 1.204-2.7924 2.408-4.1096 3.724-0.025 0.026-0.0319 0.06-0.0558 0.081-0.2905 0.308-0.5355 0.659-0.6995 1.054-0.1789 0.431-0.27 0.886-0.27 1.341v20.874h-8.3866l3.3645-196.72z" fill="#008BE6"/>
<path d="m336.25 326.72h-332.5c-1.9323 0-3.5 1.564-3.5 3.5s1.5677 3.5 3.5 3.5h332.5c1.936 0 3.5-1.564 3.5-3.5s-1.564-3.5-3.5-3.5z" fill="#008BE6"/>
<path d="m115.36 99.289h49.3c5.671 0 10.284-5.4255 10.284-12.093 0-5.4527-3.111-10.02-7.343-11.518-0.63-1.995-1.747-3.7941-3.336-5.2046-1.586-1.4036-3.475-2.2752-5.488-2.6318-1.722-4.0527-4.907-7.3681-9.061-9.2855-7.353-3.3816-15.701-1.4241-20.576 4.1723-1.149-0.6824-2.416-1.1894-3.804-1.431-2.989-0.5183-6.108 0.1151-8.775 1.799-4.193 2.6638-6.289 7.336-5.688 11.708-3.735 2.0269-6.346 6.4715-6.346 11.649 0 7.0796 4.858 12.836 10.833 12.836zm4.946-30.275c1.189-0.7485 2.559-1.0424 3.836-0.8157 1.152 0.1994 2.096 0.8009 2.657 1.6907 0.056 0.0878 0.143 0.1333 0.203 0.2131 0.143 0.1891 0.304 0.3532 0.486 0.5115 0.182 0.1573 0.36 0.294 0.564 0.4125 0.088 0.049 0.147 0.1333 0.242 0.1755 0.111 0.0524 0.227 0.0421 0.339 0.0808 0.228 0.0775 0.451 0.1333 0.693 0.1641 0.224 0.0285 0.437 0.0353 0.658 0.0205 0.221-0.0137 0.428-0.049 0.641-0.1048 0.234-0.0627 0.451-0.147 0.672-0.2552 0.105-0.0524 0.224-0.0593 0.326-0.1231 0.087-0.0558 0.136-0.1435 0.216-0.2062 0.189-0.1435 0.35-0.3008 0.507-0.483 0.157-0.1823 0.297-0.3601 0.413-0.5674 0.052-0.0877 0.133-0.147 0.175-0.2416 2.292-4.9764 8.515-7.025 13.853-4.5675 3.045 1.4037 5.257 3.9968 6.066 7.1185 0.039 0.1469 0.123 0.2586 0.179 0.3953 0.069 0.1755 0.133 0.3464 0.224 0.507 0.115 0.1891 0.255 0.3498 0.399 0.515 0.137 0.1572 0.259 0.319 0.424 0.4478 0.15 0.1185 0.326 0.1891 0.493 0.2836 0.284 0.1539 0.571 0.2769 0.896 0.3464 0.251 0.0592 0.503 0.1299 0.77 0.1299 0.056 0 0.115-0.0171 0.172-0.0205 0.032 0 0.059 0.0136 0.091 0.0102 1.116-0.074 2.243 0.2906 3.118 1.071 0.904 0.8009 1.453 1.922 1.544 3.157 0.017 0.221 0.112 0.4056 0.164 0.613 0.052 0.1925 0.074 0.3919 0.154 0.5742 0.108 0.2381 0.273 0.4307 0.427 0.6369 0.112 0.1435 0.193 0.3042 0.322 0.4341 0.203 0.1959 0.452 0.3258 0.697 0.4694 0.136 0.0774 0.248 0.1891 0.395 0.2483 0.409 0.1675 0.858 0.2701 1.323 0.2701h3e-3c1.554 0 3.284 2.0861 3.284 5.0826 0 2.9998-1.733 5.0927-3.284 5.0927l-49.289-0.0011c-1.812 0-3.832-2.3971-3.832-5.8345 0-3.4373 2.02-5.8345 3.832-5.8345 0.406 0 0.809-0.098 1.201-0.2415 0.115-0.0456 0.221-0.0946 0.329-0.147 0.112-0.0558 0.228-0.0843 0.337-0.1504 0.108-0.0695 0.167-0.1789 0.27-0.2552 0.189-0.1504 0.36-0.3042 0.515-0.4933 0.143-0.1721 0.258-0.3498 0.368-0.5423 0.104-0.1926 0.195-0.3851 0.262-0.6016 0.074-0.2313 0.115-0.4546 0.143-0.6995 0.014-0.1265 0.074-0.2347 0.074-0.3635 0-0.0946-0.049-0.1789-0.056-0.2734-0.017-0.2347-0.074-0.4546-0.14-0.6859s-0.14-0.4443-0.248-0.654c-0.046-0.0843-0.049-0.1754-0.098-0.2586-1.239-1.9699-0.341-4.7693 1.99-6.2504z" fill="#008BE6"/>
<path d="m203.92 121.37h33.594c5.132 0 9.303-4.868 9.303-10.853 0-4.788-2.699-8.817-6.399-10.249-1.194-3.471-4.101-6.0505-7.64-6.7648-1.547-3.4545-4.267-6.3038-7.836-7.9491-7.168-3.304-17.465-1.1974-23.257 8.8766-5.24 1.243-9.201 6.7443-9.201 13.334 2e-3 7.502 5.134 13.605 11.437 13.605h-1e-3zm0-20.208h7e-3c0.412 0 0.812-0.098 1.197-0.242 0.112-0.042 0.217-0.087 0.323-0.143 0.287-0.14 0.549-0.319 0.794-0.536 0.066-0.056 0.137-0.098 0.196-0.16 0.252-0.2625 0.476-0.5564 0.644-0.9005 3.626-7.5253 10.409-9.3549 14.934-7.2701 2.471 1.1371 4.263 3.2346 4.917 5.757 0.032 0.123 0.115 0.213 0.161 0.3326 0.087 0.2347 0.189 0.4478 0.322 0.6586 0.112 0.1754 0.235 0.3292 0.375 0.4796 0.164 0.1755 0.336 0.3293 0.532 0.4694 0.175 0.1265 0.353 0.2245 0.549 0.3145 0.199 0.0909 0.399 0.1639 0.62 0.2209 0.238 0.059 0.473 0.084 0.718 0.091 0.126 4e-3 0.238 0.056 0.368 0.049 1.841-0.101 3.304 1.292 3.447 3.161 0.017 0.221 0.112 0.412 0.168 0.62 0.052 0.189 0.074 0.385 0.153 0.56 0.109 0.245 0.277 0.444 0.438 0.654 0.108 0.137 0.186 0.291 0.311 0.412 0.21 0.2 0.462 0.337 0.711 0.48 0.133 0.074 0.238 0.182 0.382 0.238 0.409 0.168 0.854 0.27 1.322 0.27h4e-3c1.088 0 2.302 1.642 2.302 3.843 0 2.205-1.218 3.853-2.302 3.853l-33.594-1e-3c-2.409 0-4.438-3.023-4.438-6.604-1e-3 -3.58 2.032-6.607 4.438-6.607h1e-3z" fill="#008BE6"/>
</svg>

<svg width="340" height="334" viewBox="0 0 340 334" fill="none" xmlns="http://www.w3.org/2000/svg">
<path d="M3.74985 312.806H336.25C338.186 312.806 339.75 311.242 339.75 309.306C339.75 307.371 338.186 305.806 336.25 305.806H275.808V278.139C275.808 276.203 274.243 274.639 272.308 274.639H246.667L246.666 178.768C246.666 176.833 245.102 175.268 243.166 175.268H206.186V166.403C206.186 164.471 204.621 162.903 202.686 162.903C200.75 162.903 199.186 164.471 199.186 166.403V175.268H162.202C160.27 175.268 158.702 176.833 158.702 178.768V204.812H143.918C141.986 204.812 140.418 206.376 140.418 208.312V268.672C130.003 263.367 118.417 260.51 106.366 260.51C91.1233 260.51 76.6105 265.019 64.3051 273.365L61.4967 108.924C69.6304 108.111 76.0287 101.304 76.0287 92.9573C76.0287 84.5401 69.5219 77.6871 61.2835 76.976L60.1248 52.3392C60.1179 52.1535 60.0268 51.9963 59.9881 51.8209C59.9357 51.5554 59.9003 51.2854 59.7887 51.0473C59.7363 50.9356 59.652 50.8513 59.5859 50.7499C59.4104 50.4526 59.2224 50.1689 58.9661 49.9376C58.9308 49.9057 58.8886 49.8886 58.851 49.8601C58.5468 49.6049 58.2175 49.3873 57.8393 49.2471C57.7128 49.1981 57.5738 49.2016 57.4405 49.1662C57.1705 49.1002 56.9153 49.0022 56.6248 49.0022H54.0351L54.0339 3.77344C54.0339 1.84115 52.4662 0.273438 50.5339 0.273438C48.6017 0.273438 47.0339 1.84115 47.0339 3.77344V49.0051H44.4477C43.1602 49.0051 42.0813 49.7331 41.473 50.7722C41.4103 50.8702 41.3294 50.9511 41.2804 51.0559C41.1722 51.2872 41.1403 51.5492 41.0879 51.8044C41.0491 51.9867 40.958 52.1474 40.9477 52.3399L39.7993 76.8364H39.0018C30.1083 76.8364 22.877 84.0677 22.877 92.9577C22.877 101.851 30.1118 109.082 39.0018 109.082H40.2299L36.8667 305.803H3.7509C1.81861 305.803 0.250905 307.367 0.250905 309.303C0.250905 311.237 1.81861 312.806 3.7509 312.806L3.74985 312.806ZM59.2628 305.806V288.433H153.477V305.806H59.2628ZM246.667 305.806V281.639H268.808V305.806H246.667ZM165.704 182.271H239.67V201.514H228.505C226.569 201.514 225.005 203.079 225.005 205.014C225.005 206.95 226.569 208.514 228.505 208.514H239.67V219.063H228.505C226.569 219.063 225.005 220.628 225.005 222.563C225.005 224.499 226.569 226.063 228.505 226.063H239.67V236.616H228.505C226.569 236.616 225.005 238.18 225.005 240.116C225.005 242.051 226.569 243.616 228.505 243.616H239.67V254.165H228.505C226.569 254.165 225.005 255.729 225.005 257.665C225.005 259.6 226.569 261.165 228.505 261.165H239.67V271.717H228.505C226.569 271.717 225.005 273.281 225.005 275.217C225.005 277.153 226.569 278.717 228.505 278.717H239.67V289.27H228.505C226.569 289.27 225.005 290.834 225.005 292.77C225.005 294.705 226.569 296.27 228.505 296.27H239.67V305.814H217.946L217.945 208.318C217.945 206.383 216.38 204.818 214.445 204.818H165.704L165.704 182.271ZM147.423 267.98H156.979C158.911 267.98 160.479 266.416 160.479 264.48C160.479 262.544 158.911 260.98 156.979 260.98H147.423V253.938H156.979C158.911 253.938 160.479 252.373 160.479 250.438C160.479 248.502 158.911 246.938 156.979 246.938H147.423V239.899H156.979C158.911 239.899 160.479 238.335 160.479 236.399C160.479 234.463 158.911 232.899 156.979 232.899H147.423V225.857H156.979C158.911 225.857 160.479 224.292 160.479 222.357C160.479 220.421 158.911 218.857 156.979 218.857H147.423V211.814H162.19C162.197 211.814 162.2 211.818 162.207 211.818C162.214 211.818 162.217 211.814 162.224 211.814H210.947V218.857L175.264 218.858C173.332 218.858 171.764 220.422 171.764 222.358C171.764 224.294 173.332 225.858 175.264 225.858H210.944V232.9H175.264C173.332 232.9 171.764 234.464 171.764 236.4C171.764 238.336 173.332 239.9 175.264 239.9H210.944V246.939H175.264C173.332 246.939 171.764 248.503 171.764 250.439C171.764 252.375 173.332 253.939 175.264 253.939H210.944V260.981L175.264 260.98C173.332 260.98 171.764 262.544 171.764 264.48C171.764 266.416 173.332 267.98 175.264 267.98H210.944V275.022H175.264C173.332 275.022 171.764 276.587 171.764 278.522C171.764 280.458 173.332 282.022 175.264 282.022H210.944V289.061H175.264C173.332 289.061 171.764 290.625 171.764 292.561C171.764 294.497 173.332 296.061 175.264 296.061H210.944V305.813H160.477V284.939C160.477 284.485 160.386 284.029 160.207 283.602C160.028 283.171 159.769 282.783 159.447 282.461C155.744 278.755 151.705 275.517 147.418 272.71V267.98L147.423 267.98ZM65.1808 281.434C76.9511 272.45 91.2553 267.515 106.373 267.515C121.489 267.519 135.793 272.45 147.565 281.434H65.1808ZM47.7917 56.0081H53.2902L54.27 76.8407H46.8153L47.7917 56.0081ZM29.886 92.9652C29.886 87.9363 33.9807 83.8439 39.0108 83.8439H59.9093C64.9382 83.8439 69.0306 87.9351 69.0306 92.9652C69.0306 97.9988 64.9393 102.09 59.9093 102.09H39.0108C33.9807 102.09 29.886 97.9953 29.886 92.9652ZM47.2425 109.09H54.4977L57.3995 278.738C56.0061 279.942 54.6071 281.146 53.2899 282.462C53.2649 282.488 53.258 282.522 53.2341 282.543C52.9436 282.851 52.6986 283.202 52.5346 283.597C52.3557 284.028 52.2646 284.483 52.2646 284.938V305.812H43.878L47.2425 109.09Z" fill="#008BE6"/>
<path d="M336.25 326.719H3.75C1.81771 326.719 0.25 328.283 0.25 330.219C0.25 332.155 1.81771 333.719 3.75 333.719H336.25C338.186 333.719 339.75 332.155 339.75 330.219C339.75 328.283 338.186 326.719 336.25 326.719Z" fill="#008BE6"/>
<path d="M115.365 99.2888H164.665C170.336 99.2888 174.949 93.8633 174.949 87.196C174.949 81.7433 171.838 77.1758 167.606 75.6776C166.976 73.6826 165.859 71.8835 164.27 70.473C162.684 69.0694 160.795 68.1978 158.782 67.8412C157.06 63.7885 153.875 60.4731 149.721 58.5557C142.368 55.1741 134.02 57.1316 129.145 62.728C127.996 62.0456 126.729 61.5386 125.341 61.297C122.352 60.7787 119.233 61.4121 116.566 63.096C112.373 65.7598 110.277 70.432 110.878 74.8038C107.143 76.8307 104.532 81.2753 104.532 86.4524C104.532 93.532 109.39 99.2888 115.365 99.2888ZM120.311 69.0138C121.5 68.2653 122.87 67.9714 124.147 68.1981C125.299 68.3975 126.243 68.999 126.804 69.8888C126.86 69.9766 126.947 70.0221 127.007 70.1019C127.15 70.291 127.311 70.4551 127.493 70.6134C127.675 70.7707 127.853 70.9074 128.057 71.0259C128.145 71.0749 128.204 71.1592 128.299 71.2014C128.41 71.2538 128.526 71.2435 128.638 71.2822C128.866 71.3597 129.089 71.4155 129.331 71.4463C129.555 71.4748 129.768 71.4816 129.989 71.4668C130.21 71.4531 130.417 71.4178 130.63 71.362C130.864 71.2993 131.081 71.215 131.302 71.1068C131.407 71.0544 131.526 71.0475 131.628 70.9837C131.715 70.9279 131.764 70.8402 131.844 70.7775C132.033 70.634 132.194 70.4767 132.351 70.2945C132.508 70.1122 132.648 69.9344 132.764 69.7271C132.816 69.6394 132.897 69.5801 132.939 69.4855C135.231 64.5091 141.454 62.4605 146.792 64.918C149.837 66.3217 152.049 68.9148 152.858 72.0365C152.897 72.1834 152.981 72.2951 153.037 72.4318C153.106 72.6073 153.17 72.7782 153.261 72.9388C153.376 73.1279 153.516 73.2886 153.66 73.4538C153.797 73.611 153.919 73.7728 154.084 73.9016C154.234 74.0201 154.41 74.0907 154.577 74.1852C154.861 74.3391 155.148 74.4621 155.473 74.5316C155.724 74.5908 155.976 74.6615 156.243 74.6615C156.299 74.6615 156.358 74.6444 156.415 74.641C156.447 74.641 156.474 74.6546 156.506 74.6512C157.622 74.5772 158.749 74.9418 159.624 75.7222C160.528 76.5231 161.077 77.6442 161.168 78.8792C161.185 79.1002 161.28 79.2848 161.332 79.4922C161.384 79.6847 161.406 79.8841 161.486 80.0664C161.594 80.3045 161.759 80.4971 161.913 80.7033C162.025 80.8468 162.106 81.0075 162.235 81.1374C162.438 81.3333 162.687 81.4632 162.932 81.6068C163.068 81.6842 163.18 81.7959 163.327 81.8551C163.736 82.0226 164.185 82.1252 164.65 82.1252H164.653C166.207 82.1252 167.937 84.2113 167.937 87.2078C167.937 90.2076 166.204 92.3005 164.653 92.3005L115.364 92.2994C113.552 92.2994 111.532 89.9023 111.532 86.4649C111.532 83.0276 113.552 80.6304 115.364 80.6304C115.77 80.6304 116.173 80.5324 116.565 80.3889C116.68 80.3433 116.786 80.2943 116.894 80.2419C117.006 80.1861 117.122 80.1576 117.231 80.0915C117.339 80.022 117.398 79.9126 117.501 79.8363C117.69 79.6859 117.861 79.5321 118.016 79.343C118.159 79.1709 118.274 78.9932 118.384 78.8007C118.488 78.6081 118.579 78.4156 118.646 78.1991C118.72 77.9678 118.761 77.7445 118.789 77.4996C118.803 77.3731 118.863 77.2649 118.863 77.1361C118.863 77.0415 118.814 76.9572 118.807 76.8627C118.79 76.628 118.733 76.4081 118.667 76.1768C118.601 75.9455 118.527 75.7325 118.419 75.5228C118.373 75.4385 118.37 75.3474 118.321 75.2642C117.082 73.2943 117.98 70.4949 120.311 69.0138Z" fill="#008BE6"/>
<path d="M203.915 121.371H237.509C242.641 121.371 246.812 116.503 246.812 110.518C246.812 105.73 244.113 101.701 240.413 100.269C239.219 96.798 236.312 94.2185 232.773 93.5042C231.226 90.0497 228.506 87.2004 224.937 85.5551C217.769 82.2511 207.472 84.3577 201.68 94.4317C196.44 95.6747 192.479 101.176 192.479 107.766C192.481 115.268 197.613 121.371 203.916 121.371L203.915 121.371ZM203.915 101.163H203.922C204.334 101.163 204.734 101.065 205.119 100.921C205.231 100.879 205.336 100.834 205.442 100.778C205.729 100.638 205.991 100.459 206.236 100.242C206.302 100.186 206.373 100.144 206.432 100.082C206.684 99.8195 206.908 99.5256 207.076 99.1815C210.702 91.6562 217.485 89.8266 222.01 91.9114C224.481 93.0485 226.273 95.146 226.927 97.6684C226.959 97.7914 227.042 97.8814 227.088 98.001C227.175 98.2357 227.277 98.4488 227.41 98.6596C227.522 98.835 227.645 98.9888 227.785 99.1392C227.949 99.3147 228.121 99.4685 228.317 99.6086C228.492 99.7351 228.67 99.8331 228.866 99.9231C229.065 100.014 229.265 100.087 229.486 100.144C229.724 100.203 229.959 100.228 230.204 100.235C230.33 100.239 230.442 100.291 230.572 100.284C232.413 100.183 233.876 101.576 234.019 103.445C234.036 103.666 234.131 103.857 234.187 104.065C234.239 104.254 234.261 104.45 234.34 104.625C234.449 104.87 234.617 105.069 234.778 105.279C234.886 105.416 234.964 105.57 235.089 105.691C235.299 105.891 235.551 106.028 235.8 106.171C235.933 106.245 236.038 106.353 236.182 106.409C236.591 106.577 237.036 106.679 237.504 106.679H237.508C238.596 106.679 239.81 108.321 239.81 110.522C239.81 112.727 238.592 114.375 237.508 114.375L203.914 114.374C201.505 114.374 199.476 111.351 199.476 107.77C199.475 104.19 201.508 101.163 203.914 101.163L203.915 101.163Z" fill="#008BE6"/>
</svg>
